X:137
T:Humors of Whiskey, The
C:Joe Buchanan's Scottish Tome - Page 255.3
I:255 3
Z:Carl Allison
R:Jig
L:1/8
M:6/8
K:D
A | dfd ecA | ecB AGF | GBB FAA | GFG E2 A | dcd ecA | dcB AFA | Bcd efg | fdd d2 :| 
B | AFA dcd | BGG ede | AFA dAF | GFG EFG | AFA dcd | BGB ede | faf ede | fdd d2 :| 

